azure-patterns/svg-data-sheet.svg

<svg xmlns="http://www.w3.org/2000/svg" viewBox="0 0 44.277 35.975"><path d="M0 0h8.3v2.767H0V0m0 8.3h8.3v2.767H0V8.3m0 8.3h8.3v2.767H0V16.6m0 8.3h8.3v2.767H0v-2.761m0 8.3h8.3v2.767H0v-2.765M11.069 0h16.6v2.767h-16.6V0m0 8.3h16.6v2.767h-16.6V8.3m0 8.3h16.6v2.767h-16.6V16.6m0 8.3h16.6v2.767h-16.6v-2.761m0 8.3h16.6v2.767h-16.6v-2.765M30.441 0h13.836v2.767H30.441V0m0 8.3h13.836v2.767H30.441V8.3m0 8.3h13.836v2.767H30.441V16.6m0 8.3h13.836v2.767H30.441v-2.761m0 8.3h13.836v2.767H30.441z" fill="#505050"/></svg>

<svg xmlns="http://www.w3.org/2000/svg" viewBox="0 0 44.277 35.975">
                                
                            
  <path d="M0,0H8.3V2.767H0V0M0,8.3H8.3v2.767H0V8.3m0,8.3H8.3v2.767H0V16.6m0,8.3H8.3v2.767H0V24.906m0,8.3H8.3v2.767H0V33.208M11.069,0h16.6V2.767h-16.6V0m0,8.3h16.6v2.767h-16.6V8.3m0,8.3h16.6v2.767h-16.6V16.6m0,8.3h16.6v2.767h-16.6V24.906m0,8.3h16.6v2.767h-16.6V33.208M30.441,0H44.277V2.767H30.441V0m0,8.3H44.277v2.767H30.441V8.3m0,8.3H44.277v2.767H30.441V16.6m0,8.3H44.277v2.767H30.441V24.906m0,8.3H44.277v2.767H30.441Z" fill="#505050"></path>
</svg>
